X:1
T:Etude 13, Op 176
T:Jean-Baptiste Duvernoy c. 1802 – c. 1880 
%%score { 1 | 2 }
L:1/8
Q:1/4=144
M:4/4
K:C
V:1 treble nm="Piano" snm="Pno."
V:2 bass 
V:1
!p!"^Allegro comodo" ([Ge]4 [Fd]4 | [Ec]4) z4 | ([df]4 [ce]4 | [Bd]4) z4 | ([eg]4 [df]4 | %5
 [ce]4) ([ce]4 | [cd]4 [Bg]4 | [ce]4) z4 |!f! ([Bd]4 [Bg]4) | ([cg]4 [c^f]4) | (^fgag fedc | %11
 B4) z4 |!>(! (g^fed cBAG)!>)! |!mf!!>(! (edcB AG^FE)!>)! |!mp!!<(! (^FGAB cde^f)!<)! | %15
!mf!!>(! (g!courtesy!=fed cBAG)!>)! |!p! ([Ge]4 [Fd]4 | [Ec]4) z4 | ([df]4 [ce]4 | [Bd]4) z4 | %20
 ([eg]4 [df]4 | [ce]4) ([ce]4 | [cd]4 [Bg]4 | [ce]4) z4 |] %24
V:2
!pp!!<(! (C,D,E,F, G,A,B,G,)!<)! |!p!!>(! (CB,A,G, F,E,D,C,)!>)! | %2
!pp!!<(! (G,G,,A,,B,, C,D,E,F,)!<)! |!p!!>(! (G,^F,G,A, G,=F,E,D,)!>)! | %4
!pp!!<(! (C,D,E,F, G,A,B,G,)!<)! |!p!!>(! (CB,A,^G,) (A,=G,F,E,)!>)! |!pp! (F,E,F,^F, G,=F,E,D,) | %7
 (C,E,G,E, C,2) z2 |!mp! (G,,A,,B,,C, D,E,^F,G,) | (D,E,^F,G, A,B,CD) | (D,E,^F,G, A,B,CD) | %11
 (G,A,B,C DE^FG) | (B,4 D4 | C4) z4 | (D,4 [A,C]4 | [G,B,]4) z4 |!pp!!<(! (C,D,E,F, G,A,B,G,)!<)! | %17
!p!!>(! (CB,A,G, F,E,D,C,)!>)! |!pp!!<(! (G,G,,A,,B,, C,D,E,F,)!<)! | %19
!p!!>(! (G,^F,G,A, G,=F,E,D,)!>)! |!pp!!<(! (C,D,E,F, G,A,B,G,)!<)! | %21
!p!!>(! (CB,A,^G,) (A,=G,F,E,)!>)! |!pp! (F,E,F,^F, G,=F,E,D,) | (C,E,G,E, C,2) z2 |] %24

